X:1
T:Osborne, 10.11.10.11
T:Osborne, 10.11.10.11
T:W. Jones, before 1890
T:Public Domain Courtesy of the Cyber Hymnal™
C:W. Jones, before 1890
Z:Public Domain
Z:Courtesy of the Cyber Hymnal™
%%score ( 1 2 ) ( 3 4 )
L:1/8
M:3/4
K:Eb
V:1 treble 
V:2 treble 
V:3 bass 
V:4 bass 
V:1
 [GB]2 | [Ge]2 [Bd]2 [Ac]2 | [GB]4 [EG]2 | [Ac]2 [GB]2 [FA]2 | [EG]4 E2 | [DA]2 [EG]2 [DF]2 | %6
 E2 [EG]2 [FB]2 | [Ge]2 [Fd]2 [Ec]2 | [DB]4 [FA]2 | [EG]2 [EA]2 [EB]2 | [Ec]4 [Ec]2 | %11
 [EB]2 [Ec]2 [Ad]2 | [Ge]4 [EG]2 | [EA]2 [EB]2 [Ec]2 | [EB]2 [EG]2 E2 | [EA]2 [EG]2 [DF]2 | E4 |] %17
V:2
 x2 | x6 | x6 | x6 | x4 E2 | x6 | E2 x4 | x6 | x6 | x6 | x6 | x6 | x6 | x6 | x4 E2 | x6 | E4 |] %17
V:3
 [E,E]2 | [E,B,]2 [E,G,]2 [E,E]2 | [E,E]4 [E,E]2 | [E,E]2 [E,E]2 [E,B,]2 | [E,B,]4 [G,B,]2 | %5
 [F,B,]2 [E,B,]2 [A,B,]2 | [G,B,]2 [E,B,]2 [D,B,]2 | [C,B,]2 [F,B,]2 [F,=A,]2 | [B,,B,]4 [D,B,]2 | %9
 [E,B,]2 [C,C]2 [B,,_D]2 | [A,,C]4 [A,,A,]2 | [E,G,]2 A,2 [F,F]2 | [C,E]4 [E,B,]2 | %13
 [C,A,]2 [E,G,]2 A,2 | [G,B,]2 [E,B,]2 [G,B,]2 | [F,C]2 B,2 [B,,A,]2 | [E,G,]4 |] %17
V:4
 x2 | x6 | x6 | x6 | x6 | x6 | x6 | x6 | x6 | x6 | x6 | x2 A,2 x2 | x6 | x4 A,2 | x6 | x2 B,2 x2 | %16
 x4 |] %17

